src/assets/img/icons/icon_enddate.svg

<svg enable-background="new 0 0 50 50" viewBox="0 0 50 50" xmlns="http://www.w3.org/2000/svg"><path d="m39.8 10.9h-4.5v-2c0-.4-.3-.6-.6-.6s-.7.2-.7.6v1.9h-5.1v-1.9c0-.4-.3-.6-.6-.6s-.6.3-.6.6v1.9h-5.1v-1.9c0-.4-.3-.6-.6-.6s-.6.3-.6.6v1.9h-5.4v-1.9c0-.4-.3-.6-.6-.6s-.6.3-.6.6v1.9h-4.5c-1.8 0-3.2 1.4-3.2 3.2v24.4c0 1.8 1.4 3.2 3.2 3.2h29.6c1.8 0 3.2-1.4 3.2-3.2v-24.3c-.1-1.8-1.5-3.2-3.3-3.2zm-29.6 1.2h4.5v1.9c0 .4.3.6.6.6s.6-.3.6-.6v-1.9h5.1v1.9c0 .4.3.6.6.6s.6-.3.6-.6v-1.9h5.1v1.9c0 .4.3.6.6.6s.6-.3.6-.6v-1.9h5.5v1.9c0 .4.3.6.6.6s.6-.3.6-.6v-1.9h4.5c1.1 0 1.9.8 1.9 1.9v4.5h-33.3v-4.5c0-1 .8-1.9 1.9-1.9zm29.6 28.3h-29.6c-1.1 0-1.9-.8-1.9-1.9v-18.6h33.4v18.6c0 1.1-.8 1.9-1.9 1.9z"/></svg>

<?xml version="1.0" encoding="utf-8"?>
<!-- Generator: Adobe Illustrator 21.1.0, SVG Export Plug-In . SVG Version: 6.00 Build 0)  -->
<svg version="1.1" id="Ebene_5" xmlns="http://www.w3.org/2000/svg" xmlns:xlink="http://www.w3.org/1999/xlink" x="0px" y="0px"
	 viewBox="0 0 50 50" style="enable-background:new 0 0 50 50;" xml:space="preserve">
<path d="M39.8,10.9h-4.5V8.9c0-0.4-0.3-0.6-0.6-0.6S34,8.5,34,8.9v1.9h-5.1V8.9c0-0.4-0.3-0.6-0.6-0.6s-0.6,0.3-0.6,0.6v1.9h-5.1
	V8.9c0-0.4-0.3-0.6-0.6-0.6s-0.6,0.3-0.6,0.6v1.9H16V8.9c0-0.4-0.3-0.6-0.6-0.6s-0.6,0.3-0.6,0.6v1.9h-4.5c-1.8,0-3.2,1.4-3.2,3.2
	v24.4c0,1.8,1.4,3.2,3.2,3.2h29.6c1.8,0,3.2-1.4,3.2-3.2V14.1C43,12.3,41.6,10.9,39.8,10.9z M10.2,12.1h4.5v1.9
	c0,0.4,0.3,0.6,0.6,0.6s0.6-0.3,0.6-0.6v-1.9h5.1v1.9c0,0.4,0.3,0.6,0.6,0.6s0.6-0.3,0.6-0.6v-1.9h5.1v1.9c0,0.4,0.3,0.6,0.6,0.6
	s0.6-0.3,0.6-0.6v-1.9H34v1.9c0,0.4,0.3,0.6,0.6,0.6s0.6-0.3,0.6-0.6v-1.9h4.5c1.1,0,1.9,0.8,1.9,1.9v4.5H8.3v-4.5
	C8.3,13,9.1,12.1,10.2,12.1z M39.8,40.4H10.2c-1.1,0-1.9-0.8-1.9-1.9V19.9h33.4v18.6C41.7,39.6,40.9,40.4,39.8,40.4z"/>
</svg>
